!!!COM: Palestrina, Giovanni Perluigi da
!!!OPR: Missa De feria
!!!OTL: Agnus II
**kern	**kern	**kern	**kern	**kern
*Ibass	*Itenor	*Itenor	*Icalto	*Icant
!Bassus	!Tenor 2	!Tenor 1	!Altus	!Cantus
*clefF4	*clefGv2	*clefGv2	*clefG2	*clefG2
*k[]	*k[]	*k[]	*k[]	*k[]
*E:phr	*E:phr	*E:phr	*E:phr	*E:phr
*M4/2	*M4/2	*M4/2	*M4/2	*M4/2
=1	=1	=1	=1	=1
0r	0r	1r	1A	0a
.	.	1A	2.c	.
.	.	.	4d	.
=2	=2	=2	=2	=2
0r	1A	2.c	1e	0a
.	.	4d	.	.
.	2.c	2e	4A	.
.	.	.	4B	.
.	.	4A	4c	.
.	4B	4B	4d	.
=3	=3	=3	=3	=3
0r	2A	4c	4e	0a
.	.	4A	4c	.
.	4D	1d	1f	.
.	4E	.	.	.
.	4F	.	.	.
.	4G	.	.	.
.	2A	2c#	[2e	.
=4	=4	=4	=4	=4
0r	2F	1d	4e]	[0a
.	.	.	4d	.
.	2D	.	1d	.
.	1A	1e	.	.
.	.	.	2c	.
=5	=5	=5	=5	=5
1D	2r	0d	0f	1a_
.	2A	.	.	.
2.F	2D	.	.	1a_
.	[2d	.	.	.
4G	.	.	.	.
=6	=6	=6	=6	=6
1A	2d]	2r	1e	0a]
.	2c#	2.A	.	.
4D	2d	.	1f	.
4E	.	4G	.	.
4F	[2c	4A	.	.
4G	.	4B	.	.
=7	=7	=7	=7	=7
2.A	4c]	1.c	1e	0r
.	4B	.	.	.
.	1A	.	.	.
4G	.	.	.	.
2F	.	.	1r	.
2E	[2G	2c	.	.
=8	=8	=8	=8	=8
2.D	2G]	2B	1r	0r
.	2F	1A	.	.
4C	.	.	.	.
1BB	1D	.	1d	.
.	.	2G#	.	.
=9	=9	=9	=9	=9
1AA	1E	2.A	1c	1r
.	.	4G	.	.
1r	2r	1F	1d	1a
.	2A	.	.	.
=10	=10	=10	=10	=10
1E	1B	1E	1e	1g
1A	2A	1r	1c	1a
.	2c	.	.	.
=11	=11	=11	=11	=11
1G	4B	1r	0d	1b
.	4A	.	.	.
.	4B	.	.	.
.	4c	.	.	.
1G	2d	2r	.	1g
.	2B	2G	.	.
=12	=12	=12	=12	=12
0D	1A	2F	1.f	0a
.	.	4D	.	.
.	.	4E	.	.
.	1A	4F	.	.
.	.	4G	.	.
.	.	[2A	4e	.
.	.	.	4d	.
=13	=13	=13	=13	=13
1A	1r	4A]	0e	1.cc
.	.	4G	.	.
.	.	4A	.	.
.	.	4B	.	.
1AA	1A	4c	.	.
.	.	4d	.	.
.	.	[2e	.	4b
.	.	.	.	4a
=14	=14	=14	=14	=14
1E	1G#	4e]	0e	1b
.	.	4d	.	.
.	.	2B	.	.
2r	1A	1c	.	2a
2A	.	.	.	4e
.	.	.	.	4f
=15	=15	=15	=15	=15
1G	1B	1d	2r	4g
.	.	.	.	4a
.	.	.	2g	4b
.	.	.	.	4cc
2G	1G	2B	2g	2dd
2E	.	[2c	2g	2cc
=16	=16	=16	=16	=16
1F	1A	2c]	1f	2a
.	.	2A	.	2.cc
1F	[1c	1A	2f	.
.	.	.	.	4b
.	.	.	2c	2a
=17	=17	=17	=17	=17
0E	2c]	2r	0e	2g#
.	4B	2E	.	1a
.	4A	.	.	.
.	1B	2e	.	.
.	.	2B	.	2g#
=18	=18	=18	=18	=18
0AA	2.A	1c	1e	2a
.	.	.	.	2e
.	4B	.	.	.
.	1c	2.A	2r	2e
.	.	.	2A	[2a
.	.	4G	.	.
=19	=19	=19	=19	=19
0r	1d	2F	2A	2a]
.	.	2B-	1d	2g
.	2r	1A	.	2f
.	2A	.	2c	2e
=20	=20	=20	=20	=20
0r	2A	1D	1.f	4d
.	.	.	.	4e
.	1d	.	.	4f
.	.	.	.	4g
.	.	1r	.	1a
.	2c	.	2e	.
=21	=21	=21	=21	=21
0r	2.B	1E	[0e	2.g#
.	4A	.	.	4a
.	2G#	2E	.	2b
.	2A	[2A	.	2cc
=22	=22	=22	=22	=22
2r	1E	2A]	0e]	1b
2E	.	2G	.	.
2E	2r	[1c	.	1r
[2A	[2e	.	.	.
=23	=23	=23	=23	=23
2A]	2e]	2c]	0r	1r
2G	2e	2B	.	.
2.c	2.e	2.A	.	2r
.	.	.	.	[2e
4B	4d	4B	.	.
=24	=24	=24	=24	=24
2A	2c	4c	0r	2e]
.	.	4d	.	.
2G	2B	1e	.	2e
1F	1A	.	.	[1a
.	.	2d	.	.
=25	=25	=25	=25	=25
1E	0e	2c	1r	2a]
.	.	2B	.	2g
1AA	.	2.A	2r	2.cc
.	.	.	2A	.
.	.	4G	.	4b
=26	=26	=26	=26	=26
0r	2r	2F	2A	2a
.	1c	2E	1e	2g
.	.	2F	.	2a
.	2B	2G	2d	4g
.	.	.	.	4f
=27	=27	=27	=27	=27
0r	1c	2.C	2.g	2.e
.	.	4D	4f	4f
.	1B	4E	2e	4g
.	.	4F	.	4a
.	.	2G	2d	[2b
=28	=28	=28	=28	=28
0r	0e	1A	1c	4b]
.	.	.	.	4a
.	.	.	.	1a
.	.	1E	1B	.
.	.	.	.	2g#
=29	=29	=29	=29	=29
1AA	2.c	[0A	2A	0a
.	.	.	2e	.
.	4d	.	.	.
2AA	2e	.	2c	.
[2D	[2A	.	[2f	.
=30	=30	=30	=30	=30
2D]	4A]	0A]	2f]	1r
.	4B	.	.	.
2C	2.c	.	4e	.
.	.	.	4d	.
2.F	.	.	2c	[1a
.	4B	.	.	.
.	4A	.	[2f	.
4E	4G	.	.	.
=31	=31	=31	=31	=31
2D	4F	0r	2f]	2a]
.	4G	.	.	.
2C	1A	.	2e	2a
1BB	.	.	2.d	[1dd
.	2G#	.	.	.
.	.	.	4e	.
=32	=32	=32	=32	=32
0AA	2.A	2r	2f	2dd]
.	.	2E	2e	2cc
.	4B	.	.	.
.	1c	2E	1e	1a
.	.	[2A	.	.
=33	=33	=33	=33	=33
1E	1B	2A]	2r	1b
.	.	2G	1e	.
1AA	2r	2.c	.	2a
.	2A	.	2e	[2cc
.	.	4B	.	.
=34	=34	=34	=34	=34
0r	2A	2A	2f#	2cc]
.	1d	2G	2g	2b
.	.	[1A	1e	[1a
.	2c	.	.	.
=35	=35	=35	=35	=35
1D	2.f	0A]	2d	1a]
.	.	.	1f	.
.	4e	.	.	.
2D	2d	.	.	1a
[2A	2c	.	2e	.
=36	=36	=36	=36	=36
2A]	1B	1E	1.e	1b
2G	.	.	.	.
2.c	2A	1r	.	1e
.	[2c	.	2A	.
4B	.	.	.	.
=37	=37	=37	=37	=37
2A	2c]	0r	2.e	2r
2G#	2B	.	.	2e
.	.	.	4d	.
1A	4A	.	2c	2e
.	4B	.	.	.
.	4c	.	2A	[2a
.	4d	.	.	.
=38	=38	=38	=38	=38
2.E	0e	2r	1B	2a]
.	.	2E	.	2g
4D	.	.	.	.
2C	.	2E	2r	[1cc
2AA	.	[2A	2A	.
=39	=39	=39	=39	=39
1E	1e	2A]	1B	2cc]
.	.	2G	.	2b
1r	2r	2.c	[1e	2a
.	[2c	.	.	2g
.	.	4B	.	.
=40	=40	=40	=40	=40
0r	2c]	2A	2e]	2a
.	2B	2G#	2e	2.b
.	2c	1A	[1e	.
.	.	.	.	4a
.	2A	.	.	[2a
=41	=41	=41	=41	=41
1r	1B	1E	1e]	2a]
.	.	.	.	2g#
1AA	2A	[1A	2.c#	1a
.	2e	.	.	.
.	.	.	4d	.
=42	=42	=42	=42	=42
2AA	2c#	0A]	2e	[0a
1D	2d	.	1f	.
.	2A	.	.	.
2C	[2c	.	2e	.
=43	=43	=43	=43	=43
2.F	4c]	2r	1c	0a]
.	4B	.	.	.
.	4A	1A	.	.
4E	4G	.	.	.
2D	2F	.	2d	.
2C#	2E	2A	[2e	.
=44	=44	=44	=44	=44
0D	0F	1A	2e]	2r
.	.	.	4d	2a
.	.	.	4c	.
.	.	1A	1d	2a
.	.	.	.	[2dd
=45	=45	=45	=45	=45
1AA	2E	2r	[0e	2dd]
.	2A	2E	.	2cc
2r	2G	2E	.	2b
2AA	2c	[2A	.	2a
=46	=46	=46	=46	=46
2AA	2A	2A]	0e]	2cc
2E	2B	2G	.	2.b
2C	1E	[1c	.	.
.	.	.	.	4a
4AA	.	.	.	[2a
4BB	.	.	.	.
=47	=47	=47	=47	=47
4C	2.e	2c]	[0e	2a]
4D	.	.	.	.
2E	.	2B	.	2g#
.	4d	.	.	.
1AA	1c	1A	.	1a
=48	=48	=48	=48	=48
0E	0B	0G#	0e]	0b
==	==	==	==	==
*-	*-	*-	*-	*-
!!!CDT: 1525/^1526/-1594/2/2
!!!OCY: Italia
!!!AGN: Mass (Paraphrase)
!!!AST: renaissance, vocal
!!!ASW: Gregorian Mass
!!!PWK: Masses, Book 3
!!!RNB: Cadence finals: A
!!!YOR: Le Opere Complete, v. 6, p. 84
!!!YOO: Rome, Italy: Fratelli Scalera
!!!END: 1992//
!!!EED: John Miller
!!!YEC: Copyright 2000, John Miller
!!!YEN: United States of America
!!!YEM: Rights to all derivative electronic formats reserved.
!!!YEM: Refer to licensing agreement for further details.
!!!YEM: This file must be accompanied by the licensing agreement.
!!!YEM: A copy of the licensing agreement may be found at http://www.music-cog.ohio-state.edu/HumdrumDatabases/Palestrina/license.txt
!!!EMD: converted to Humdrum by Bret Aarden
